src/assets/outline/VolumeHigh.svg

<svg width="24" height="24" viewBox="0 0 24 24"  xmlns="http://www.w3.org/2000/svg">
<path d="M12.55 20.5901C11.76 20.5901 10.89 20.3101 10.02 19.7601L7.1 17.9301C6.9 17.8101 6.67 17.7401 6.44 17.7401H5C2.58 17.7401 1.25 16.4101 1.25 13.9901V9.99011C1.25 7.57011 2.58 6.24011 5 6.24011H6.43C6.66 6.24011 6.89 6.17011 7.09 6.05011L10.01 4.22011C11.47 3.31011 12.89 3.14011 14.01 3.76011C15.13 4.38011 15.74 5.67011 15.74 7.40011V16.5701C15.74 18.2901 15.12 19.5901 14.01 20.2101C13.57 20.4701 13.07 20.5901 12.55 20.5901ZM5 7.75011C3.42 7.75011 2.75 8.42011 2.75 10.0001V14.0001C2.75 15.5801 3.42 16.2501 5 16.2501H6.43C6.95 16.2501 7.45 16.3901 7.89 16.6701L10.81 18.5001C11.77 19.1001 12.68 19.2601 13.29 18.9201C13.9 18.5801 14.25 17.7301 14.25 16.6001V7.41011C14.25 6.27011 13.9 5.42011 13.29 5.09011C12.68 4.75011 11.77 4.90011 10.81 5.51011L7.88 7.33011C7.45 7.61011 6.94 7.75011 6.43 7.75011H5Z" />
<path d="M17.9998 16.75C17.8398 16.75 17.6898 16.7 17.5498 16.6C17.2198 16.35 17.1498 15.88 17.3998 15.55C18.9698 13.46 18.9698 10.54 17.3998 8.45003C17.1498 8.12003 17.2198 7.65003 17.5498 7.40003C17.8798 7.15003 18.3498 7.22003 18.5998 7.55003C20.5598 10.17 20.5598 13.83 18.5998 16.45C18.4498 16.65 18.2298 16.75 17.9998 16.75Z" />
<path d="M19.8299 19.25C19.6699 19.25 19.5199 19.2 19.3799 19.1C19.0499 18.85 18.9799 18.38 19.2299 18.05C21.8999 14.49 21.8999 9.51003 19.2299 5.95003C18.9799 5.62003 19.0499 5.15003 19.3799 4.90003C19.7099 4.65003 20.1799 4.72003 20.4299 5.05003C23.4999 9.14003 23.4999 14.86 20.4299 18.95C20.2899 19.15 20.0599 19.25 19.8299 19.25Z" />
</svg>

<?xml version="1.0" encoding="UTF-8"?>
<svg width="24" height="24" viewBox="0 0 24 24" xmlns="http://www.w3.org/2000/svg">
 <path d="m12.55 20.59c-0.79 0-1.66-0.28-2.53-0.83l-2.92-1.83c-0.2-0.12-0.43-0.19-0.66-0.19h-1.44c-2.42 0-3.75-1.33-3.75-3.75v-4c0-2.42 1.33-3.75 3.75-3.75h1.43c0.23 0 0.46-0.07 0.66-0.19l2.92-1.83c1.46-0.91 2.88-1.08 4-0.46s1.73 1.91 1.73 3.64v9.17c0 1.72-0.62 3.02-1.73 3.64-0.44 0.26-0.94 0.38-1.46 0.38zm-7.55-12.84c-1.58 0-2.25 0.67-2.25 2.25v4c0 1.58 0.67 2.25 2.25 2.25h1.43c0.52 0 1.02 0.14 1.46 0.42l2.92 1.83c0.96 0.6 1.87 0.76 2.48 0.42s0.96-1.19 0.96-2.32v-9.19c0-1.14-0.35-1.99-0.96-2.32-0.61-0.34-1.52-0.19-2.48 0.42l-2.93 1.82c-0.43 0.28-0.94 0.42-1.45 0.42h-1.43z"/>
 <path d="m18 16.75c-0.16 0-0.31-0.05-0.45-0.15-0.33-0.25-0.4-0.72-0.15-1.05 1.57-2.09 1.57-5.01 0-7.1-0.25-0.33-0.18-0.8 0.15-1.05s0.8-0.18 1.05 0.15c1.96 2.62 1.96 6.28 0 8.9-0.15 0.2-0.37 0.3-0.6 0.3z"/>
 <path d="m19.83 19.25c-0.16 0-0.31-0.05-0.45-0.15-0.33-0.25-0.4-0.72-0.15-1.05 2.67-3.56 2.67-8.54 0-12.1-0.25-0.33-0.18-0.8 0.15-1.05s0.8-0.18 1.05 0.15c3.07 4.09 3.07 9.81 0 13.9-0.14 0.2-0.37 0.3-0.6 0.3z"/>
</svg>
